packages/kaspersky-hexa-ui-icons/src/iconsSVGs/24/ConnectionWifi.svg

<svg width="24" height="24" viewBox="0 0 24 24" fill="none" xmlns="http://www.w3.org/2000/svg">
<path d="M3.28407 9.50319C5.54425 7.32617 8.61479 5.98901 11.9997 5.98901C15.3846 5.98901 18.4552 7.32617 20.7154 9.50319C21.1131 9.88633 21.7462 9.87446 22.1293 9.47669C22.5125 9.07892 22.5006 8.44586 22.1028 8.06272C19.485 5.54117 15.9226 3.98901 11.9997 3.98901C8.07687 3.98901 4.51447 5.54117 1.8966 8.06272C1.49883 8.44586 1.48696 9.07892 1.8701 9.47669C2.25324 9.87446 2.88629 9.88633 3.28407 9.50319Z" fill="black"/>
<path d="M11.9998 10.0919C9.57689 10.0919 7.39315 11.1089 5.84925 12.7421C5.46986 13.1435 4.83694 13.1612 4.4356 12.7818C4.03426 12.4025 4.01647 11.7695 4.39586 11.3682C6.30179 9.35203 9.00444 8.09195 11.9998 8.09195C14.9951 8.09195 17.6978 9.35203 19.6037 11.3682C19.9831 11.7695 19.9653 12.4025 19.564 12.7818C19.1626 13.1612 18.5297 13.1435 18.1503 12.7421C16.6064 11.1089 14.4227 10.0919 11.9998 10.0919Z" fill="black"/>
<path d="M8.58422 15.827C9.38676 14.8234 10.6183 14.1834 12 14.1834C13.3816 14.1834 14.6131 14.8234 15.4157 15.827C15.7606 16.2583 16.3899 16.3284 16.8212 15.9835C17.2526 15.6385 17.3226 15.0093 16.9777 14.5779C15.8119 13.1201 14.015 12.1834 12 12.1834C9.98491 12.1834 8.18798 13.1201 7.02223 14.5779C6.67731 15.0093 6.74736 15.6385 7.17869 15.9835C7.61002 16.3284 8.2393 16.2583 8.58422 15.827Z" fill="black"/>
<path d="M11.9998 20.3795C13.1471 20.3795 14.0772 19.4494 14.0772 18.3021C14.0772 17.1548 13.1471 16.2247 11.9998 16.2247C10.8524 16.2247 9.92236 17.1548 9.92236 18.3021C9.92236 19.4494 10.8524 20.3795 11.9998 20.3795Z" fill="black"/>
</svg>

<svg xmlns="http://www.w3.org/2000/svg" width="24" height="24" fill="none" viewBox="0 0 24 24"><path fill="#000" fill-rule="evenodd" d="M3.284 9.5032c2.2603-2.177 5.3308-3.5142 8.7157-3.5142s6.4555 1.3372 8.7157 3.5142c.3977.3831 1.0308.3712 1.4139-.0265s.3713-1.0308-.0265-1.414C19.485 5.5412 15.9226 3.989 11.9997 3.989S4.5145 5.5412 1.8966 8.0627c-.3978.3832-.4096 1.0162-.0265 1.414s1.0162.4096 1.414.0265m8.7158.5888c-2.423 0-4.6066 1.0169-6.1506 2.6501-.3793.4014-1.0123.4192-1.4136.0398s-.4191-1.0124-.0397-1.4137C6.3018 9.352 9.0045 8.092 11.9998 8.092s5.698 1.26 7.6039 3.2762c.3794.4013.3616 1.0343-.0397 1.4137s-1.0343.3616-1.4137-.0398c-1.5439-1.6332-3.7276-2.6501-6.1505-2.6501m-3.4156 5.735c.8026-1.0036 2.0341-1.6436 3.4158-1.6436s2.6132.64 3.4157 1.6436c.3449.4313.9742.5014 1.4055.1565s.5014-.9742.1565-1.4056C15.8119 13.1201 14.015 12.1834 12 12.1834s-3.812.9367-4.9778 2.3945c-.3449.4314-.2748 1.0607.1565 1.4056s1.0606.2748 1.4055-.1565m3.4156 4.5525c1.1473 0 2.0774-.93 2.0774-2.0774s-.9301-2.0774-2.0774-2.0774-2.0774.9301-2.0774 2.0774.9301 2.0774 2.0774 2.0774"/></svg>
